!!!COM: Haydn, Franz Joseph
!!!OTL: String Quartet in G major
!!!OPS: Opus 1
!!!ONM: No. 4
!!!OMD: Presto
!!!OMV: 1
!!!SCT: H III:4
!!!SCA: Thematisch-bibliographisches Werkevererzeichnis (A. van Hoboken)
!!!YOR: Bremner Edition, 1772
!!!ENC: Frances Bennion
!!!CDT: 1732/3/31/-1809/5/31/
!!!CNT: Oesterreich
!!!YEC: Copyright (c) 1994, 2000 Center for Computer Assisted Research in the Humanities
!!!YEM: Rights to all derivative editions reserved.
!!!YEM: Refer to licensing agreement for further details.
!!!YEN: United States of America
**kern	**kern	**kern	**kern
*k[f#]	*k[f#]	*k[f#]	*k[f#]
*G:	*G:	*G:	*G:
*clefF4	*clefC3	*clefF	*clefF
*M3/8	*M3/8	*M3/8	*M3/8
8GG	8r	8r	8B 8g
4r	8B	8d	4r
.	8G	8B	.
=2	=2	=2	=2
8D	8r	8r	8f# 8A
4r	8A	8c	4r
.	8c	8A	.
=3	=3	=3	=3
8D	8r	8r	8cc 8f#
4r	8f#	8a	4r
.	8d	8f#	.
=4	=4	=4	=4
8G	8r	8r	8g 8b
4r	8B	8g	4r
.	8g	8b	.
=5	=5	=5	=5
8G	4.r	4.r	8d 8gg 8b
8B	.	.	8dd
8G	.	.	8dd
=6	=6	=6	=6
4D	8f#	8d 8aa 8cc	4dd
.	8a	8cc	.
8r	8f#	8cc	16cc
.	.	.	16a
=7	=7	=7	=7
8G	4g	4b	8b 8gg 8d
8B	.	.	8dd
8G	8r	8r	8dd
=8	=8	=8	=8
4D	8f#	8aa 8d 8cc	4dd
.	8a	8cc	.
8r	8f#	8cc	16cc
.	.	.	16a
=9	=9	=9	=9
4G	4g	4b	8g
.	.	.	16cc
.	.	.	16b
8r	8r	8r	16ee
.	.	.	16dd
=10	=10	=10	=10
4.r	4.r	4.r	16gg
.	.	.	16ff#
.	.	.	16aa
.	.	.	16gg
.	.	.	16bb
.	.	.	16gg
=11	=11	=11	=11
8D	8d	4b	4dd
8D	8d	.	.
8D	8d	8a	8cc
=12	=12	=12	=12
8G	8g	8g	8b
8BB	8B	4r	4r
8D	8d	.	.
=13	=13	=13	=13
8GG	8G	8r	8g 8B
4r	8B	8d	4r
.	8G	8B	.
=14	=14	=14	=14
8D	8r	8r	8f# 8A
4r	8A	8c	4r
.	8c	8A	.
=15	=15	=15	=15
8D	8r	8r	8f# 8cc
4r	8c	8a	4r
.	8A	8f#	.
=16	=16	=16	=16
8G	8r	8r	8b 8g
4r	8B	8g	4r
.	8g	8b	.
=17	=17	=17	=17
4G	4b 4d 4G	4gg 4b 4d	4bb
8G	8r	8r	16b
.	.	.	16cc#
=18	=18	=18	=18
4F#	4d	4a 4d	16dd
.	.	.	16a
.	.	.	16g
.	.	.	16f#
8G#	8B	8r	16e
.	.	.	16d
=19	=19	=19	=19
8A	8A	8r	16c#
.	.	.	16e
4r	4r	8cc#	16g
.	.	.	16e
.	.	8dd	16f#
.	.	.	16d
=20	=20	=20	=20
8AA	16c#	8r	8A
.	16e	.	.
4r	16g	8cc#	4r
.	16e	.	.
.	16f#	8dd	.
.	16d	.	.
=21	=21	=21	=21
8AA	8A	8r	16c#
.	.	.	16e
4r	4r	8cc#	16g
.	.	.	16e
.	.	8dd	16f#
.	.	.	16d
=22	=22	=22	=22
8AA	16c#	8r	8A
.	16e	.	.
4r	16g	8c#	4r
.	16e	.	.
.	16f#	8d	.
.	16d	.	.
=23	=23	=23	=23
8AA	8A	8r	16cc#
.	.	.	16ee
4r	4r	8c#	16gg
.	.	.	16ee
.	.	8d	16ff#
.	.	.	16dd
=24	=24	=24	=24
4AA	4.e	4.A	16cc#
.	.	.	16dd
.	.	.	16ee
.	.	.	16cc#
8C#	.	.	16a
.	.	.	16g
=25	=25	=25	=25
4D	4d	8A	4f#
.	.	8r	.
8d	8r	16f#	8r
.	.	16a	.
=26	=26	=26	=26
8e	4.r	16g	4r
.	.	16b	.
8d	.	16f#	.
.	.	16a	.
8c#	.	16e	8aa
.	.	16a	.
=27	=27	=27	=27
8d	4r	16f#	8a
.	.	16a	.
8D	.	16dd	4r
.	.	16a	.
8r	8dd	16f#	.
.	.	16a	.
=28	=28	=28	=28
4.r	8ee	16g	4r
.	.	16a	.
.	8dd	16f#	.
.	.	16a	.
.	8cc#	16e	8aa
.	.	16a	.
=29	=29	=29	=29
4r	8dd	16f#	8a
.	.	16a	.
.	8d	16dd	4r
.	.	16a	.
8d	8r	16f#	.
.	.	16a	.
=30	=30	=30	=30
8e	4.r	16g	4r
.	.	16a	.
8d	.	16f#	.
.	.	16a	.
8c#	.	16e	8aa
.	.	16a	.
=31	=31	=31	=31
8d	4r	16f#	8a
.	.	16a	.
8D	.	16dd	4r
.	.	16a	.
8c#	8cc#	16e	.
.	.	16a	.
=32	=32	=32	=32
8d	8dd	16f#	4.r
.	.	16a	.
8c#	8cc#	16e	.
.	.	16a	.
8B	8b	16d	.
.	.	16a	.
=33	=33	=33	=33
8A	8a	8c#	4.ccc#
8A	8e	8a	.
8A	8e	[8a	.
=34	=34	=34	=34
8AA	8e	8a]	4.eee
8A	8c#	8cc#	.
8A	8c#	[8cc#	.
=35	=35	=35	=35
8AA	8c#	8cc#]	4.ggg
8A	8c#	8ee	.
8A	8c#	8ee	.
=36	=36	=36	=36
8A	8c#	4A	4.gg
8B	8d	.	.
8c#	8e	8a	.
=37	=37	=37	=37
4d	4d	8a	16gg
.	.	.	16ff#
.	.	4r	16bb
.	.	.	16aa
8r	8r	.	8ddd
=38	=38	=38	=38
8A	8a	16f#	4.a
.	.	16dd	.
8A	8a	16f#	.
.	.	16dd	.
8A	8a	16f#	.
.	.	16dd	.
=39	=39	=39	=39
8AA	8A	16e	4.ee
.	.	16cc#	.
8AA	8A	16e	.
.	.	16cc#	.
8AA	8A	16e	.
.	.	16cc#	.
=40	=40	=40	=40
4D	4d	8d	8dd
.	.	8r	8r
8r	8r	8ff#	8aa
=41	=41	=41	=41
4r	4r	8dd	8ff#
.	.	4r	4r
8F#	8a	.	.
=42	=42	=42	=42
8D	8f#	4r	4r
4r	4r	.	.
.	.	8ff#	8aa
=43	=43	=43	=43
4r	4r	8dd	8ff#
.	.	4r	4r
8F#	8a	.	.
=44	=44	=44	=44
8D	8f#	4r	4r
8r	8r	.	.
8B-	8b-	[8g	8dd
=45	=45	=45	=45
8A	8a	8g]	8cc#
8r	8r	8r	8r
8B-	8b-	[8g	8dd
=46	=46	=46	=46
8A	8a	8g]	8cc#
8r	8r	8r	8r
8B-	8b-	[8g	8dd
=47	=47	=47	=47
8A	8a	8g]	8cc#
8r	8r	8r	8r
8B-	8g	8g	8dd
=48	=48	=48	=48
4A	4e	4g	4cc#
8r	8r	8r	8r
=49	=49	=49	=49
8D	8d	8d	8d
8F#	8f#	8f#	8f#
8A	8a	8a	8a
=50	=50	=50	=50
4d	4dd	4dd	8dd
.	.	.	8ff#
8r	8r	8r	8aa
=51	=51	=51	=51
4c#	8c#	4a	8.ee
.	8e	.	.
.	.	.	32ff#
.	.	.	32gg
8d	8d	8dd	8ff#
=52	=52	=52	=52
4c#	8c#	4a	8.ee
.	8e	.	.
.	.	.	32ff#
.	.	.	32gg
8d	8d	8dd	8ff#
=53	=53	=53	=53
8D	8d	8d	8d
8F#	8f#	8f#	8f#
8A	8a	8a	8a
=54	=54	=54	=54
4d	4dd	4dd	8dd
.	.	.	8ff#
8r	8r	8r	8aa
=55	=55	=55	=55
4G	4g	[4.dd [4.d	8.bb
.	.	.	32ccc#
.	.	.	32ddd
8F#	8f#	.	8aa
=56	=56	=56	=56
4G	4g	4.dd] 4.d]	8.bb
.	.	.	32ccc#
.	.	.	32ddd
8F#	8f#	.	8aa
=57	=57	=57	=57
8B	8b	8dd 8d	8gg
8A	8a	8dd	8ff#
8AA	8A	8cc#	8ee
=58	=58	=58	=58
4D	4d	4dd	4dd
8r	8r	8r	8r
=59	=59	=59	=59
8D	8r	8r	8dd 8f#
4r	8f#	8a	4r
.	8d	8f#	.
=60	=60	=60	=60
8A	8r	8r	8e 8cc#
4r	8e	8g	4r
.	8g	8e	.
=61	=61	=61	=61
8A	8r	8r	8gg 8cc#
4r	8g	8ee	4r
.	8e	8cc#	.
=62	=62	=62	=62
8d	8r	8r	8dd 8ff#
4r	8f#	8dd	4r
.	8a	8ff#	.
=63	=63	=63	=63
4D	4d	4d	8d
.	.	.	8aa
8r	8r	8r	8ff#
=64	=64	=64	=64
8r	8r	8r	8dd
8D	8d	8d	8d
8D#	8d#	8d#	8d#
=65	=65	=65	=65
4E	4e	4e	8e
.	.	.	8bb
8r	8r	8r	8gg#
=66	=66	=66	=66
8r	8r	8r	8ee
8E	8e	8e	8e
8D	8d	8d	8d
=67	=67	=67	=67
8C	8c	8c	8c
8c	8cc	8cc	8cc
8B	8b	8b	8b
=68	=68	=68	=68
8A	8a	8cc	8a
8AA	8A	8A	8A
8AA#	8A#	8A#	8A#
=69	=69	=69	=69
8BB	8B	4.B	4B
8B	8b	.	.
8A	8a	.	16dd#
.	.	.	16b
=70	=70	=70	=70
8G	8g	[4.B	16ee
.	.	.	16gg
8F#	8f#	.	16ff#
.	.	.	16aa
8E	8e	.	16gg
.	.	.	16bb
=71	=71	=71	=71
8BB	[4.b	8B]	4b
8B	.	8b	.
8A	.	8a	16dd#
.	.	.	16b
=72	=72	=72	=72
8G	4.b]	8g	16ee
.	.	.	16gg
8F#	.	8f#	16ff#
.	.	.	16aa
8E	.	8e	16gg
.	.	.	16bb
=73	=73	=73	=73
4A	[4.a	16cc	8ccc
.	.	16ee	.
.	.	16dd	8r
.	.	16ff#	.
8r	.	16ee	8cc
.	.	16gg	.
=74	=74	=74	=74
4D	4.a]	8ff#	16ff#
.	.	.	16aa
.	.	8r	16gg
.	.	.	16bb
8r	.	8f#	16aa
.	.	.	16ccc
=75	=75	=75	=75
4G	[4.g	16b	8bb
.	.	16dd	.
.	.	16cc	8r
.	.	16ee	.
8r	.	16dd	8b
.	.	16ff#	.
=76	=76	=76	=76
4C	4.g]	8ee	16ee
.	.	.	16gg
.	.	8r	16ff#
.	.	.	16aa
8r	.	8e	16gg
.	.	.	16bb
=77	=77	=77	=77
4F#	[4.f#	16a	8aa
.	.	16cc#	.
.	.	16b	8r
.	.	16dd#	.
8r	.	16cc#	8a
.	.	16ee	.
=78	=78	=78	=78
4BB	4.f#]	8dd#	16dd#
.	.	.	16ff#
.	.	4r	16ee
.	.	.	16gg
8r	.	.	16ff#
.	.	.	16aa
=79	=79	=79	=79
4E	4e	[4.b	8.gg
.	.	.	32aa
.	.	.	32bb
8D#	8d#	.	8ff#
=80	=80	=80	=80
4E	4e	4.b]	8.gg
.	.	.	32aa
.	.	.	32bb
8F#	8f#	.	8dd#
=81	=81	=81	=81
8G	8g	8b	4.ee
8G	8g	8b	.
8G	8g	8b	.
=82	=82	=82	=82
8G	8g	8b	4.eee
8G	8g	8b	.
8G	8g	8b	.
=83	=83	=83	=83
8A	8a	8cc	[4.ccc
16A	16a	16cc	.
16G	16g	16b	.
16F#	16f#	16a	.
16E	16e	16g	.
=84	=84	=84	=84
4D#	4d#	4f#	8ccc]
.	.	.	16bb
.	.	.	16aa
8D#	8d#	8b	16gg
.	.	.	16ff#
=85	=85	=85	=85
8E	8e	8b	8gg
8B	8b	8g	8ee
8BB	8B	8f#	8dd#
=86	=86	=86	=86
4E	4e	4e	8ee
.	.	.	8r
8r	8r	8r	16bb
.	.	.	16gg
=87	=87	=87	=87
8e	8ee	8ee	8ee
8B	8b	8b	8b
8G	8g	8g	8g
=88	=88	=88	=88
4E	4e	4e	4e
8r	8r	8r	8r
=89	=89	=89	=89
4.r	4.r	4.r	8bb
.	.	.	8gg#
.	.	.	8ff
=90	=90	=90	=90
4.r	4.r	4.r	8dd
.	.	.	8b
.	.	.	8g#
=91	=91	=91	=91
4.G#	4.B	4d	4f
.	.	16c	16e
.	.	16B	16d
=92	=92	=92	=92
4A	8c	4A	8c
.	4r	.	8g#
8r	.	8r	8a
=93	=93	=93	=93
8F	8f	8f	8f
16E	16e	16e	16e
16D	16d	16d	16d
16C	16c	16c	16c
16BB	16B	16B	16B
=94	=94	=94	=94
4AA	4A	4A	4A
8r	8r	8r	8r
=95	=95	=95	=95
4F#	4d	4a 4d	8aa 8cc 8d
.	.	.	8cc
8r	8r	8r	8cc
=96	=96	=96	=96
4G	4d	4gg 4b 4d	16cc
.	.	.	16b
.	.	.	16ee
.	.	.	16dd
8r	8r	8r	8dd
=97	=97	=97	=97
4F#	4d	4a 4d	8d 8aa 8cc
.	.	.	8cc
8r	8r	8r	8cc
=98	=98	=98	=98
4G	4d	4gg 4b 4d	16cc
.	.	.	16b
.	.	.	16ee
.	.	.	16dd
8r	8r	8r	8dd
=99	=99	=99	=99
8BB	8B	8dd	8dd
8C	8c	16cc	16cc
.	.	16b	16b
8C#	8c#	16a	16a
.	.	16g	16g
=100	=100	=100	=100
8D	8d	4d	8d
16E	16e	.	4r
16D	16d	.	.
16E	16e	8r	.
16F#	16f#	.	.
=101	=101	=101	=101
8G	8g	8r	8g 8B
4r	8B	8d	4r
.	8G	8B	.
=102	=102	=102	=102
8D	8r	8r	8A 8f#
4r	8A	8c	4r
.	8c	8A	.
=103	=103	=103	=103
8D	8r	8r	8cc 8f#
4r	8c	8a	4r
.	8A	8f#	.
=104	=104	=104	=104
8G	8r	8r	8b 8g
4r	8B	8g	4r
.	8g	8b	.
=105	=105	=105	=105
8G	4.r	4.r	8gg 8d 8b
8B	.	.	8dd
8G	.	.	8dd
=106	=106	=106	=106
4D	8f#	8aa 8d 8cc	4dd
.	8a	8cc	.
8r	8f#	8cc	16cc
.	.	.	16a
=107	=107	=107	=107
8G	4g	4b	8gg 8b 8d
8B	.	.	8dd
8G	8r	8r	8dd
=108	=108	=108	=108
4D	8f#	8d 8aa 8cc	4dd
.	8a	8cc	.
8r	8f#	8cc	16cc
.	.	.	16a
=109	=109	=109	=109
4G	4g	4b	8g
.	.	.	16cc
.	.	.	16b
8r	8r	8r	16ee
.	.	.	16dd
=110	=110	=110	=110
4.r	4.r	4.r	16gg
.	.	.	16ff#
.	.	.	16aa
.	.	.	16gg
.	.	.	16bb
.	.	.	16gg
=111	=111	=111	=111
8D	8d	4b	4dd
8D	8d	.	.
8D	8d	8a	8cc
=112	=112	=112	=112
8G	8g	8g	8b
8BB	8B	4r	4r
8D	8d	.	.
=113	=113	=113	=113
4GG	8G	8r	8B 8g
.	8B	8d	4r
8r	8G	8B	.
=114	=114	=114	=114
8D	8r	8r	8f# 8A
4r	8A	8c	4r
.	8c	8A	.
=115	=115	=115	=115
8D	8r	8r	8f# 8cc
4r	8c	8a	4r
.	8A	8f#	.
=116	=116	=116	=116
8G	8r	8r	8g 8b
4r	8B	8g	4r
.	8g	8b	.
=117	=117	=117	=117
4c	4C 4G 4e	4cc 4G 4e	4cc 4ee 4c 4g
8C	8r	8r	16ee
.	.	.	16ff#
=118	=118	=118	=118
4BB	4g	4g 4G	16gg
.	.	.	16dd
.	.	.	16cc
.	.	.	16b
8C#	8e	8r	16a
.	.	.	16g
=119	=119	=119	=119
8D	8d	8r	16f#
.	.	.	16a
4r	4r	8ff#	16cc
.	.	.	16a
.	.	8gg	16b
.	.	.	16g
=120	=120	=120	=120
8D	16f#	8r	8d
.	16a	.	.
4r	16cc	8ff#	4r
.	16a	.	.
.	16b	8gg	.
.	16g	.	.
=121	=121	=121	=121
8D	8d	8r	16f#
.	.	.	16a
4r	4r	8ff#	16cc
.	.	.	16a
.	.	8gg	16b
.	.	.	16g
=122	=122	=122	=122
8D	16f#	8r	8d
.	16a	.	.
4r	16cc	8ff#	4r
.	16a	.	.
.	16b	8gg	.
.	16g	.	.
=123	=123	=123	=123
8D	8d	8r	16f#
.	.	.	16a
4r	4r	8f#	16cc
.	.	.	16a
.	.	8g	16b
.	.	.	16g
=124	=124	=124	=124
4D	4.A	4.d	16f#
.	.	.	16g
.	.	.	16a
.	.	.	16f#
8F#	.	.	16d
.	.	.	16c
=125	=125	=125	=125
8G	4G	8G	4B
8GG	.	8r	.
8G	8r	16B	8r
.	.	16d	.
=126	=126	=126	=126
8A	4.r	16c	4r
.	.	16d	.
8G	.	16B	.
.	.	16d	.
8F#	.	16A	8dd
.	.	16d	.
=127	=127	=127	=127
8G	4r	16B	8d
.	.	16d	.
8GG	.	16g	4r
.	.	16d	.
8r	8g	16B	.
.	.	16d	.
=128	=128	=128	=128
4.r	8a	16c	4r
.	.	16d	.
.	8g	16B	.
.	.	16d	.
.	8f#	16A	8dd
.	.	16d	.
=129	=129	=129	=129
4r	8g	16B	8d
.	.	16d	.
.	8G	16g	4r
.	.	16d	.
8G	8r	16B	.
.	.	16d	.
=130	=130	=130	=130
8A	4.r	16c	4r
.	.	16d	.
8G	.	16B	.
.	.	16d	.
8F#	.	16A	8dd
.	.	16d	.
=131	=131	=131	=131
8G	4r	16B	8d
.	.	16d	.
8GG	.	16g	4r
.	.	16d	.
8F#	8f#	16A	.
.	.	16d	.
=132	=132	=132	=132
8G	8g	16B	4.r
.	.	16d	.
8F#	8f#	16A	.
.	.	16d	.
8E	8e	16G	.
.	.	16d	.
=133	=133	=133	=133
8D	8d	8d	4.ff#
8D	8A	8d	.
8D	8A	8d	.
=134	=134	=134	=134
8D	8A	8d	4.aa
8D	8F#	8f#	.
8D	8f#	8f#	.
=135	=135	=135	=135
8D	8f#	8f#	4.ccc
8D	8f#	8a	.
8D	8f#	8a	.
=136	=136	=136	=136
8FF#	8F#	4cc	4eee
8FF#	8F#	.	.
8FF#	8F#	16cc	16eee
.	.	32b	32ddd
.	.	32a	32ccc
=137	=137	=137	=137
4GG	4G	4g	8bb
.	.	.	8ddd
8r	8r	8r	8ggg
=138	=138	=138	=138
8D	8d	16B	4.d
.	.	16g	.
8D	8d	16B	.
.	.	16g	.
8D	8d	16B	.
.	.	16g	.
=139	=139	=139	=139
8D	8d	16A	4.a
.	.	16f#	.
8D	8d	16A	.
.	.	16f#	.
8D	8d	16A	.
.	.	16f#	.
=140	=140	=140	=140
4GG	4G	8G	8g
.	.	8r	8r
8r	8r	8bb	8ddd
=141	=141	=141	=141
4r	4r	8gg	8bb
.	.	4r	4r
8B	8dd	.	.
=142	=142	=142	=142
8G	8b	4r	4r
4r	4r	.	.
.	.	8bb	8ddd
=143	=143	=143	=143
4r	4r	8gg	8bb
.	.	4r	4r
8B	8dd	.	.
=144	=144	=144	=144
8G	8b	4r	4r
8r	8r	.	.
8E-	8e-	[8cc	8gg
=145	=145	=145	=145
8D	8d	8cc]	8ff#
8r	8r	8r	8r
8E-	8e-	[8cc	8gg
=146	=146	=146	=146
8D	8d	8cc]	8ff#
8r	8r	8r	8r
8E-	8e-	[8cc	8gg
=147	=147	=147	=147
8D	8d	8cc]	8ff#
8r	8r	8r	8r
8E-	8c	8cc	8gg
=148	=148	=148	=148
4D	4.A	4cc	4ff#
8r	.	8r	8r
=149	=149	=149	=149
8GG	8G	8g	8g
8BB	8B	8b	8b
8D	8d	8dd	8dd
=150	=150	=150	=150
4G	4g	4gg	8gg
.	.	.	8bb
8r	8r	8r	8ddd
=151	=151	=151	=151
4F#	8f#	4dd	8.aa
.	8a	.	.
.	.	.	32bb
.	.	.	32ccc
8G	8g	8gg	8bb
=152	=152	=152	=152
4F#	8f#	4dd	8.aa
.	8a	.	.
.	.	.	32bb
.	.	.	32ccc
8G	8g	8gg	8bb
=153	=153	=153	=153
8GG	8G	8g	8g
8BB	8B	8b	8b
8D	8d	8dd	8dd
=154	=154	=154	=154
4G	4g	4gg	8gg
.	.	.	8bb
8r	8r	8r	8ddd
=155	=155	=155	=155
4c	4cc	[4.G [4.g	8.ee
.	.	.	32ff#
.	.	.	32gg
8B	8b	.	8dd
=156	=156	=156	=156
4c	4cc	4.G] 4.g]	8.ee
.	.	.	32ff#
.	.	.	32gg
8B	8b	.	8dd
=157	=157	=157	=157
8c	8cc	8G 8g	8cc
8d	8dd	8g	8b
8D	8d	8f#	8a
=158	=158	=158	=158
4G	4g	4g	4g
8r	8r	8r	8r
==	==	==	==
*-	*-	*-	*-
!!!RWG1: This file contains only pitch and duration data.
!!!RWG2: Transposing instruments are not transposed.
!!!RWG3: Spines may have incompatible meters.
!!!RWG4: Durations of rests and tied notes may be interpreted.
!!!RWG: Key is interpreted using the Humdrum key tool.
!!!GTL: 10 Divertimentos
!!!AFT: stage1
!!!END: 1997/04/15
!!!KEY: 3090557110
!!!EMD: Converted from MuseData to Humdrum Dec 16, 2000, by Andreas Kornstaedt using muse2kern.
!!!EMD: Manual editing by Craig Sapp, Nov 2001
